X: 16339
T: Guggerin' Spuds
R: jig
M: 6/8
K: Amajor
|:F|EFA c2 A|d2 B cAF|EFA cBA|BcB BAF|
EFA c2 A|d2 B cAF|EFA BAB|cAA A2:|
|:E|Ace a2 e|fgf fec|aec fec|BcB BAF|
Ace a2 e|(3fga f fec|aec fec|BcB A2:|

